!!!SOCIAL_FUNCTION:	social gatherings
!!!PDT:	1939
!!!OTL: No_95_Song_of_the_Crew.krn
!!!LANG: Non-Tone
!!!LING_GROUP: Wakashan
!!!REG: Pacific Northwest
**kern
*staff1
=1-
*clefF4
*k[b-e-]
*M3/4
4B-\
4B-\
8.c\L
16c\Jk
=2||
*M2/4
4B-\
16G\LK
8.F\J
=3||
*M3/4
8.B-\L
16c\Jk
8B-\L
8G\J
8B-\L
16.G\L
32G\JJk
=4
4F\
8D\
8r
8.F\L
16D\Jk
=5||
*M2/4
8C/L
8BB-/J
8.C/L
16C/Jk
=6
8BB-/
8r
8.C/L
16C/Jk
=7
8BB-/L
8GG/J
8.BB-/L
16BB-/Jk
=8||
*M3/4
8.BB-/L
16BB-/Jk
4BB-/
4r
=9!|:
4B-\
8B-\L
8G\J
8B-\L
16.G\L
32G\JJk
=10
4F\
8F\L
8D\J
16G\LK
8F\
16D\Jk
=11||
*M2/4
8C/L
8BB-/J
8.C/L
16C/Jk
=12
8BB-/
8r
16D/LK
8C/
16BB-/Jk
=13
4BB-/
8.BB-/L
16BB-/Jk
=14||
*M3/4
8.BB-/L
16BB-/Jk
4BB-/
4r
=15
4B-\
4B-\
8.c\L
16c\Jk
=16||
*M2/4
4B-\
16G\LL
16F\JJ
8r
=17||
*M3/4
8.B-\L
16c\Jk
8B-\L
8G\J
8.B-\L
16G\Jk
=18
4F\
12G\L
12F\
12D\J
12G\L
12F\
12D\J
=19||
*M2/4
8C/L
8BB-/J
8.C/L
16C/Jk
=20
8BB-/L
8GG/J
12D/L
12C/
12BB-/J
=21
4BB-/
8.BB-/L
16BB-/Jk
=22
8.BB-/L
16BB-/Jk
4BB-/
=23
2BB-/
==
*-
